X:1
T:Title
%%score 1 2
L:1/8
Q:1/4=100
M:4/4
K:F
V:1 treble nm="Grand Piano, Soprano"
V:2 bass nm="Choir Pad, Cartagena, LM"
V:1
 [FA]3 [FA] [FB][FA][CG]F | [Fd]4 [Fc]2 [FA]F | [EG]2 [EG][FA] [GB]2 [Ec]2 | [FA]6 z2 | %4
w: By~Winthrop,~1888 * * * * *||||
 [^FA]3 [FA] [Fd][Fc][FB][FA] | [GB]4 D2 [DG][DF] | [CE]2 [CE][B,D] [B,C]2 [B,G]2 | [A,F]8 |] %8
w: ||||
V:2
 [F,C]3 [F,C] [F,D][F,C][F,B,][F,A,] | [F,B,]4 [F,A,]2 [F,C][F,A,] | %2
 [C,C]2 [B,C][A,C] [G,C]2 [C,C]2 | [F,C]6 z2 | [D,D]3 [D,D] [D,A,][D,D][D,D][D,D] | %5
 [G,D]4 [B,,B,]2 [B,,B,][B,,B,] | [C,G,]2 [C,G,][C,F,] [C,E,]2 [C,E,]2 | F,8 |] %8

